static/asset/line.svg

<?xml version="1.0" encoding="UTF-8" standalone="no"?>
<svg width="24px" height="24px" viewBox="0 0 24 24" version="1.1" xmlns="http://www.w3.org/2000/svg" xmlns:xlink="http://www.w3.org/1999/xlink">
    <!-- Generator: Sketch 39.1 (31720) - http://www.bohemiancoding.com/sketch -->
    <title>icon-share-line</title>
    <desc>Created with Sketch.</desc>
    <defs></defs>
    <g id="Desktop-HD" stroke="none" stroke-width="1" fill="none" fill-rule="evenodd">
        <g id="Article-–-Desktop-HD" transform="translate(-454.000000, -291.000000)" fill="#7F7F7F">
            <g id="Share" transform="translate(370.000000, 291.000000)">
                <g id="icon-share-line" transform="translate(84.000000, 0.000000)">
                    <path d="M19.63,0.115 L4.42166667,0.115 C2.02938936,0.110370446 0.0837653696,2.04109115 0.07,4.43333333 L0.07,19.6416667 C0.0626070272,22.0361671 1.99386655,23.9853155 4.38833333,24 L19.5966667,24 C21.9947758,24.0046075 23.9428164,22.0647739 23.9483333,19.6666667 L23.9483333,4.46666667 C23.9529629,2.07438936 22.0222422,0.12876537 19.63,0.115 Z M20.6666667,11 C20.6666667,7.11 16.7666667,3.945 11.9733333,3.945 C7.18,3.945 3.28,7.11166667 3.28,11 C3.28,14.4883333 6.37333333,17.4083333 10.5516667,17.96 C10.835,18.0216667 11.2183333,18.1466667 11.3183333,18.3883333 C11.3861999,18.64518 11.3958797,18.9139365 11.3466667,19.175 C11.3466667,19.175 11.245,19.7883333 11.2233333,19.92 C11.185,20.14 11.0566667,20.78 11.9766667,20.3883333 C12.8966667,19.9966667 16.9766667,17.44 18.81,15.34 C20.07,13.9583333 20.6733333,12.5566667 20.6733333,11.0066667 L20.6666667,11 Z" id="Combined-Shape"></path>
                    <path d="M10.2033333,9.125 L9.59333333,9.125 C9.50128588,9.125 9.42666667,9.19961921 9.42666667,9.29166667 L9.42666667,13.08 C9.42666667,13.1720475 9.50128588,13.2466667 9.59333333,13.2466667 L10.2033333,13.2466667 C10.2953808,13.2466667 10.37,13.1720475 10.37,13.08 L10.37,9.29333333 C10.37,9.20128588 10.2953808,9.12666667 10.2033333,9.12666667" id="Shape"></path>
                    <path d="M14.4016667,9.125 L13.7916667,9.125 C13.6996192,9.125 13.625,9.19961921 13.625,9.29166667 L13.625,11.5416667 L11.8866667,9.2 L11.8733333,9.18333333 L11.8733333,9.18333333 L11.8633333,9.17333333 L11.8633333,9.17333333 L11.855,9.17333333 L11.855,9.17333333 L11.8466667,9.17333333 L11.8466667,9.17333333 L11.8383333,9.17333333 L11.8383333,9.17333333 L11.8283333,9.17333333 L11.8283333,9.17333333 L11.8183333,9.17333333 L11.1616667,9.17333333 C11.0696192,9.17333333 10.995,9.24795254 10.995,9.34 L10.995,13.1283333 C10.995,13.2203808 11.0696192,13.295 11.1616667,13.295 L11.7716667,13.295 C11.8637141,13.295 11.9383333,13.2203808 11.9383333,13.1283333 L11.9383333,10.8333333 L13.6766667,13.18 C13.6884662,13.1964006 13.7031494,13.2105191 13.72,13.2216667 L13.72,13.2216667 L13.73,13.2216667 L13.73,13.2216667 L13.73,13.2216667 L13.73,13.2216667 L13.73,13.2216667 L13.7416667,13.2216667 L13.7416667,13.2216667 C13.7560496,13.2235524 13.7706171,13.2235524 13.785,13.2216667 L14.395,13.2216667 C14.4870475,13.2216667 14.5616667,13.1470475 14.5616667,13.055 L14.5616667,9.29333333 C14.5616667,9.20128588 14.4870475,9.12666667 14.395,9.12666667" id="Shape"></path>
                    <path d="M8.73333333,12.3016667 L7.07666667,12.3016667 L7.07666667,9.29333333 C7.07666667,9.20128588 7.00204746,9.12666667 6.91,9.12666667 L6.3,9.12666667 C6.20795254,9.12666667 6.13333333,9.20128588 6.13333333,9.29333333 L6.13333333,13.0816667 L6.13333333,13.0816667 C6.13307209,13.1251546 6.14981914,13.1670222 6.18,13.1983333 L6.18,13.1983333 L6.18,13.1983333 C6.21131109,13.2285142 6.25317873,13.2452612 6.29666667,13.245 L8.73333333,13.245 C8.82538079,13.245 8.9,13.1703808 8.9,13.0783333 L8.9,12.4683333 C8.9,12.3762859 8.82538079,12.3016667 8.73333333,12.3016667" id="Shape"></path>
                    <path d="M17.7683333,10.0733333 C17.8603808,10.0733333 17.935,9.99871412 17.935,9.90666667 L17.935,9.29666667 C17.935,9.20461921 17.8603808,9.13 17.7683333,9.13 L15.3333333,9.13 C15.28961,9.1301841 15.2477101,9.14754264 15.2166667,9.17833333 L15.2166667,9.17833333 L15.2166667,9.17833333 C15.1864858,9.20964443 15.1697388,9.25151206 15.17,9.295 L15.17,9.295 L15.17,13.0833333 L15.17,13.0833333 C15.1697388,13.1268213 15.1864858,13.1686889 15.2166667,13.2 L15.2166667,13.2 L15.2166667,13.2 C15.2479778,13.2301809 15.2898454,13.2469279 15.3333333,13.2466667 L17.77,13.2466667 C17.8620475,13.2466667 17.9366667,13.1720475 17.9366667,13.08 L17.9366667,12.47 C17.9366667,12.3779525 17.8620475,12.3033333 17.77,12.3033333 L16.1133333,12.3033333 L16.1133333,11.6666667 L17.77,11.6666667 C17.8620475,11.6666667 17.9366667,11.5920475 17.9366667,11.5 L17.9366667,10.8833333 C17.9366667,10.7912859 17.8620475,10.7166667 17.77,10.7166667 L16.1133333,10.7166667 L16.1133333,10.0766667 L17.7683333,10.0733333 Z" id="Shape"></path>
                </g>
            </g>
        </g>
    </g>
</svg>

<svg width="24" height="24" xmlns="http://www.w3.org/2000/svg"><g fill="#7F7F7F" fill-rule="evenodd"><path d="M19.63.115H4.422A4.343 4.343 0 0 0 .07 4.433v15.209A4.345 4.345 0 0 0 4.388 24h15.209a4.343 4.343 0 0 0 4.351-4.333v-15.2A4.343 4.343 0 0 0 19.63.115zM20.667 11c0-3.89-3.9-7.055-8.694-7.055C7.18 3.945 3.28 7.112 3.28 11c0 3.488 3.093 6.408 7.272 6.96.283.062.666.187.766.428.068.257.078.526.029.787l-.124.745c-.038.22-.166.86.754.468.92-.391 5-2.948 6.833-5.048 1.26-1.382 1.863-2.783 1.863-4.333L20.667 11z"/><path d="M10.203 9.125h-.61a.167.167 0 0 0-.166.167v3.788c0 .092.074.167.166.167h.61a.167.167 0 0 0 .167-.167V9.293a.167.167 0 0 0-.167-.166m4.199-.002h-.61a.167.167 0 0 0-.167.167v2.25L11.887 9.2l-.014-.017-.01-.01h-.701a.167.167 0 0 0-.167.167v3.788c0 .092.075.167.167.167h.61a.167.167 0 0 0 .166-.167v-2.295l1.739 2.347c.011.016.026.03.043.042h.022a.167.167 0 0 0 .043 0h.61a.167.167 0 0 0 .167-.167V9.293a.167.167 0 0 0-.167-.166m-5.662 3.175H7.077V9.293a.167.167 0 0 0-.167-.166H6.3a.167.167 0 0 0-.167.166v3.789c0 .043.017.085.047.116.031.03.073.047.117.047h2.436a.167.167 0 0 0 .167-.167v-.61a.167.167 0 0 0-.167-.166m9.035-2.229a.167.167 0 0 0 .167-.166v-.61a.167.167 0 0 0-.167-.167h-2.435a.167.167 0 0 0-.116.048.167.167 0 0 0-.047.117v3.788c0 .044.016.086.047.117.031.03.073.047.116.047h2.437a.167.167 0 0 0 .167-.167v-.61a.167.167 0 0 0-.167-.167h-1.657v-.636h1.657a.167.167 0 0 0 .167-.167v-.617a.167.167 0 0 0-.167-.166h-1.657v-.64l1.655-.004z"/></g></svg>
